X:1
T:Asperges me
T:M. Haller
T:Asperges me
C:M. Haller
%%score { ( 1 2 ) | ( 3 4 ) } { ( 5 6 ) | ( 7 8 ) }
L:1/8
Q:1/4=100
M:4/4
K:D
V:1 treble nm="P1"
V:2 treble 
V:3 bass 
V:4 bass 
V:5 treble nm="P3"
V:6 treble 
V:7 bass 
V:8 bass 
V:1
!f!"^Moderato" A3 A A2 A2 |!>(! B4!>)!!mf!"^$" A4 |!mf! z8 |"^-" A2"^-" B2"^-" (d2"^-" cB) | %4
w: Do- mi- ne, hy-|so- po,|||
w: |||et mun- da- * *|
"^-" c4 d2"^-""^-" A2 |"^-" B4 G4 | G2 G2 B2 d2 | e2 d2 c2 d2 |"^-""^-" A8 | !fermata!F8!fine! || %10
w: bor: la- *|va- bis|me, et su- per|ni- vem de- al-|ba-|bor.|
w: * bor: la||||||
!mf!"^Poco sostenuto" F3 F F2 F2 | G2 F2 G4 | E2!<(! F2 G2!<)! A2 | B4 A2 A2 | B2 c2 d3 d | c4 B4 | %16
w: Mi- se- re- re|me- i, De-|us, se- cun- dum|mag- nam mi-|se- ri- cor- di-|am tu-|
w: ||||||
 !fermata!A8 ||[M:3/4]!p! A3 A A2 | B4 B2 | B2 =c2 B2 | A4 z2 |!<(! B4!<)! d2 | =c3 c B2 | %23
w: am.|Glo- ri- a|Pa- tri,|et Fi- li-|o,|et Spi-|ri- tu- i|
w: |||||||
"^-""^-" A6 |"^-"!f! B4 z2 |!f! z2 B2"^-" B2 | d2 d2 cc | d3 d d2 | B2 c2 d2 | e2 c2 ee | f3 e d2 | %31
w: San|cto,||rat in prin- *|ci- pi- o,|et nunc, et|sem- per, et in|sae- cu- la|
w: ||si- cut|e- rat in prin-|ci- pi- o,||||
!p! d3 c B2 | A2 A4 |"^Tempo I" !fermata!A6 ||[M:4/4] z4!f! A4 | A3 A A4 | A3 A A2 A2 | %37
w: sae- cu- lo-|rum. A-|men.|A-|sper- ges me,|Do- mi- ne, hy-|
w: ||||||
!>(! B4!>)! A4!fine! || %38
w: so- po.|
w: |
V:2
 A3 A A2 A2 | G4 F4 | D2 E2 (G2 FE | F2 G2 F4) | E4 F4 | G4 E4 | G2 G2 G2 F2 | A2 F2 E2 F2 | %8
 (FE D4 C2) | D8 || F3 F F2 F2 | G2 F2 G4 | E2 F2 E2 F2 | G4 F2 F2 | G2 G2 F2 ^G2 | A2 (A4 ^G2) | %16
 A8 ||[M:3/4] F3 F F2 | D4 G2 | G2 E2 G2 | F4 x2 | G4 D2 | E2 F2 G2- | G2 (FE F2) | G2 G2 G2 | G6 | %26
 F2 F2 F2 | F3 F F2 | ^G2 A2 F2 | E2 A2 AA | A3 G F2 | B3 A G2 | F2 A4 | F6 ||[M:4/4] x4 A4 | %35
 A3 A A4 | A3 A A2 A2 | G4 F4 || %38
V:3
 A,3 A, A,2 A,2 | G,4 D4 | z8 | z4!mf! A,2 A,2 | A,4 A,2 D2 | D4 =C4 | B,2 B,2 D2 D2 | %7
w: |||||||
w: |||||||
w: |||et mun-|da- bor: la|||
 C2 D2 A,2 A,2 | A,8 | A,8 || F,3 F, F,2 F,2 | G,2 F,2 G,4 | E,2 D,2 G,2 D2 | D4 D2 D2 | %14
w: |||||||
w: |||||||
w: |||||||
 D2 E2 D3 D | E4 E2 D2 | !fermata![A,C]8 ||[M:3/4] D3 D D2 | B,4 E2 | E2 =C2 D2 | D4 z2 | D4 B,2 | %22
w: ||||||||
w: ||||||||
w: ||||||||
 =C3 C D2 | D6 | D4 z2 |!f! z2 E2 B,2 | B,2 B,2 ^A,A, | B,3 B, B,2 | E2 E2 D2 | C2 E2 CC | %30
w: ||||||||
w: ||||||||
w: |||si- cut|e- rat in prin-|ci- pi- o,|||
 D3 C D2 | B,3 F, G,B, | D2 C4 | D6 ||[M:4/4] z4!f! A,4 | A,3 A, A,4 | A,3 A, A,2 A,2 | G,4 D4 || %38
w: ||||||||
w: ||||||||
w: ||||||||
V:4
 A,3 A, A,2 A,2 | G,4 D,4 | x8 | x4 D,2 F,2 | A,4 D,2 D,2 | G,4 =C,4 | G,2 G,2 G,2 B,2 | %7
 C,2 D,2 A,,2 D,2 | D,E,F,G, A,4 | !fermata!D,8 || F,3 F, F,2 F,2 | G,2 F,2 G,4 | E,2 D,2 E,2 D,2 | %13
 G,4 D,2 D,2 | G,2 E,2 B,3 B, | A,4 E,4 | x8 ||[M:3/4] D,3 D, D,2 | G,4 E,2 | E,2 A,2 G,2 | %20
 D,4 x2 | G,4 B,2 | A,3 A, G,2 | D,6 | G,4 x2 | x2 E,2 E,2 | B,2 B,2 ^A,A, | B,3 B, B,2 | %28
 E,2 A,2 B,2 | C2 A,2 CC | D,3 A, B,2 | G,3 D, E,2 | F,2 A,4 | !fermata!D,6 ||[M:4/4] x4 A,4 | %35
 A,3 A, A,4 | A,3 A, A,2 A,2 | G,4 D,4 || %38
V:5
"^Moderato" A4 A4 |!>(! [GB]4!>)!"^$" [FA]4 |!mf! z8 | A2 B2!mf! d2 cB | c4 d2 A2 | B4 G4 | %6
 G4 B2 d2 | e2 d2 c2 d2 | A2 F2 E2- [EA]2 | !fermata!F8 ||"^Poco sostenuto" F4- F4 | G2 F2 G4 | %12
 E2!<(! F2 G2!<)! A2 | B4 A4 | B2 c2 d4 | c4 B4 | !fermata!A8 ||[M:3/4]!p! A4- A2 | B4- B2 | %19
 B2 =c2 B2 | A4 z2 | B4 d2 | =c4 B2 | A6 | B4 z2 | z2!mf! B2- B2 | d4 c2 | d6 | B2 c2 d2 | %29
 e2 c2 e2 | f3 e d2 |!p! d3 c B2 | A2 e4 |"^Tempo I" !fermata!A6 ||[M:4/4] A4 c4 | d4 c4 | %36
 d4 c2 d2 |!>(! [GB]4!>)! [FA]4 || %38
V:6
 [DF]4 [CE]2 [DF]2 | D4- D4 | D2 E2 G2 FE | F2 G2 F4 | E4 F4 | G4 E4 | D4 G2 F2 | A2 F2 E2 F2 | %8
 FE D4 C2 | D8 || C4 ^D4 | E2 ^D2 E4 | C2 =D2 B,2 F2 | G4 F4 | G2 G2 F2 ^G2 | A4 A2 ^G2 | E8 || %17
[M:3/4] F4- F2 | D4 G2 | G2 E2 G2 | F4 x2 | G4 D2 | E2 F2 G2- | G2 FE F2 | G4- G2 | G4 G2 | %26
 F4- F2 | F6 | ^G2 A2 F2 | E2 A2 A2 | A3 G F2 | B3 A G2 | F2 [EA]4 | F6 ||[M:4/4] E4 [EA-]4 | %35
 [FA-]4 [EA]4 | [FA]4 E2 F2 | D4 D4 || %38
V:7
!f! A,4- A,4 | G,4 A,4 | z8 | z4 A,4- | A,4 A,2 D2- | D4 =C4 | B,4 D4 | A,4- A,4- | A,4- A,4 | %9
 A,8 ||!p!"^Man." ^A,4 B,4- | B,4 B,4 | A,4 G,2 D2- | D4- D4- | D2 E2 D4 | E4- E2 D2 | C8 || %17
[M:3/4] D4- D2 | B,4 E2 | E2 =C2 D2 | D4 z2 |!<(! D4!<)! B,2 | =C4 D2 | D6 | D4 z2 | %25
 z2"^P" E2 B,2- | B,4 ^A,2 | B,4- B,2 | E4 D2 | C2 E2 C2 | D3 C D2 | B,3 F, G,B, | D2 C4 | D6 || %34
[M:4/4]!f! C4"^P" A,4- | A,4- A,4 | A,4- A,2- A,2 | G,4 A,4 || %38
V:8
 D,4 A,,2 D,2 | G,,4 D,4 | x8 | x4 D,2 F,2 | A,4 D,4 | G,4 =C,4 | G,4 G,,2 B,,2 | %7
 C,2 D,2 A,,2 D,2 | D,E,F,G, A,2 A,,2 | !fermata!D,8 || [F,,F,-]4 [B,,F,]4 | E,2 B,,2 E,4 | %12
 A,,2 D,2 E,2 D,2 | G,4 D,4 | G,2 E,2 B,4 | A,4 E,4 | !fermata![A,,A,]8 ||[M:3/4] D,4 D,2 | %18
 G,4 E,2 | E,2 A,2 G,2 | D,4 x2 | G,4 B,2 | A,4 G,2 | D,6 | G,4 x2 | x2 E,2- E,2 | B,,4 F,2 | %27
 B,,4 B,2 | E,2 A,2 B,2 | C2 A,4 | D,3 A, B,2 | G,3 D, E,2 | F,2 [A,,A,]4 | !fermata![D,A,]6 || %34
[M:4/4] A,4 A,,4 | D,4 A,,4 | D,4 A,2 D,2 | G,4 D,4 || %38

